!!!COM:	Martini, Johannes
!!!CDT:	~1440///-~1497//
!!!OTL:	Deus tuorum militum II
!!!AGN:	Motet
!!!SCT:	Mar2097
!!!SCA:	Mar2097
!!!voices:	4
**kern	**kern	**kern	**kern
*staff4	*staff3	*staff2	*staff1
*Ivox	*Ivox	*Ivox	*Ivox
*I"Bassus	*I"Tenor	*I"Altus	*I"Superius
*I'B	*I'T	*I'A	*I'S
*clefF4	*clefGv2	*clefGv2	*clefG2
*k[]	*k[]	*k[]	*k[]
*M3/1	*M3/1	*M3/1	*M3/1
*met(O)	*met(O)	*met(O)	*met(O)
=1-	=1-	=1-	=1-
1E	0.r	0.r	0.r
1F	.	.	.
[1E	.	.	.
=2	=2	=2	=2
1E]	0.r	1e	0.r
1D	.	1f	.
2E\	.	[1e	.
[2C/	.	.	.
=3	=3	=3	=3
4C/]	0.r	1e]	1e
4BB/	.	.	.
2C/	.	.	.
1D	.	1d	1f
[1AA	.	2e\	[1e
.	.	[2c\	.
=4	=4	=4	=4
1AA]	1E	4c\]	1e]
.	.	4B\	.
.	.	2c\	.
1D	1F	1d	1d
1C	[1E	2G/	[1g
.	.	4A/	.
.	.	4B\	.
=5	=5	=5	=5
2r	1E]	2c\	1g]
1G	.	4d\	.
.	.	4e\	.
.	1D	1f	1a
2F\	.	.	.
2G\	[1G	[1d	2b\
2A\	.	.	2cc\
=6	=6	=6	=6
2.B-i\	1G]	1d]	2dd\
.	.	.	2b\
4A\	.	.	.
2F\	1A	1d	1cc
2A\	.	.	.
2G\	2B\	1r	2b\
4F\	2c\	.	2a/
4E\	.	.	.
=7	=7	=7	=7
1D	2d\	1F	4b\
.	.	.	4a/
.	2B\	.	4g/
.	.	.	4f/
1C	1c	2G/	1e
.	.	2A/	.
1G	1r	1B	1d
=8	=8	=8	=8
1.C	0c	2c\	2c/
.	.	4B\	1e
.	.	4A/	.
.	.	1G	.
2D\	.	.	2f/
1E	1B	2r	2.g/
.	.	2G/	.
.	.	.	4f/
=9	=9	=9	=9
1F	1A	2c\	1.a
.	.	2d\	.
0E	0B	2e\	.
.	.	2.g\	2g/
.	.	.	2.g/
.	.	4f\	.
.	.	4e\	.
.	.	4d\	4f/
=10	=10	=10	=10
1F	0A	2c\	1a
.	.	1d	.
1D	.	.	1r
.	.	1e	.
1G	1r	.	1b
.	.	[2c\	.
=11	=11	=11	=11
1A	0.r	2c\]	1.cc
.	.	1f	.
0F	.	.	.
.	.	1d	2b\
.	.	.	1a
.	.	[2g\	.
=12	=12	=12	=12
1G	1B	2g\]	1g
.	.	1e	.
2C/	1.c	.	1r
1F	.	1a	.
.	.	.	1r
2G\	2B\	[2g\	.
=13	=13	=13	=13
1D	1A	2g\]	1a
.	.	2f#i\	.
2r	1G	1g	2.b\
1G	.	.	.
.	.	.	4a/
.	1r	2G/	2b\
4F\	.	[2A/	[2cc\
4E\	.	.	.
=14	=14	=14	=14
1F	1A	4A/]	2cc\]
.	.	4B\	.
.	.	4c\	4b\
.	.	4d\	4a/
2E\	2.B\	2e\	1.g
1G	.	2.d\	.
.	4A/	.	.
.	2B\	.	.
.	.	4e\	.
[2F\	[2c\	[2f\	[2a/
=15	=15	=15	=15
2F\]	2c\]	4f\]	2a/]
.	.	4e\	.
2G\	4B\	1d	2.b\
.	4A/	.	.
1E	1G	.	.
.	.	.	4a/
.	.	2c\	1g
1D	1A	1d	.
.	.	.	2f#i/
=16	=16	=16	=16
2E\	1G	2B\	0g
2.C/	.	2.c\	.
.	1r	.	.
4BB/	.	4d\	.
2.C/	.	2.e\	.
.	1G	.	1r
4D\	.	4d\	.
[2E\	.	[2g\	.
=17	=17	=17	=17
4E\]	2G/	4g\]	1r
4D\	.	4f\	.
2C/	2.A/	4e\	.
.	.	4d\	.
2D\	.	2f\	1r
.	4B\	.	.
2C/	1c	2e\	.
1G	.	1d	1g
.	2B\	.	.
=18	=18	=18	=18
2C/	0c	2r	2g/
2F\	.	1f	2.a/
1A	.	.	.
.	.	.	4b\
.	.	2e\	1cc
1G	1d	1g	.
.	.	.	2b\
=19	=19	=19	=19
2.C/	0c	1e	1cc
4D\	.	.	.
2E\	.	2r	1r
1F	.	2.A/	.
.	1r	.	1cc
.	.	4B\	.
2E\	.	2c\	.
=20	=20	=20	=20
2D\	1r	2d\	2b\
2G\	.	2e\	4a/
.	.	.	4g/
1F	1c	1f	1a
1G	1B	2d\	1g
.	.	[2g\	.
=21	=21	=21	=21
1c	1A	4g\]	1r
.	.	4f#i\	.
.	.	4f#i\	.
.	.	4e\	.
2d\	1G	2g\	1b
2B\	.	2d\	.
2.c\	1r	2.e\	1g
4B\	.	4d\	.
=22	=22	=22	=22
1G	1B	1d	2r
.	.	.	2.dd\
1r	1G	2B\	.
.	.	.	4cc\
.	.	2d\	2b\
1A	2r	2c\	4a/
.	.	.	4b\
.	2F/	2f\	4cc\
.	.	.	4dd\
=23	=23	=23	=23
2G\	2G/	1d	2b\
2F\	2A/	.	2.a/
2G\	2B\	1e	.
.	.	.	4g/
2C/	2c\	.	1g
1D	1A	1d	.
.	.	.	2f#i/
=24	=24	=24	=24
1E	0G	1B	0g
1C	.	1e	.
2F\	1r	1c	1r
2A\	.	.	.
=25	=25	=25	=25
1G	0.r	2d\	1b
.	.	2.e\	.
1r	.	.	1g
.	.	4d\	.
.	.	1g	.
1d	.	.	1a
.	.	2f\	.
=26	=26	=26	=26
1G	1B	2d\	1r
.	.	2.e\	.
1E	1G	.	1g
.	.	4B\	.
.	.	2c\	.
1D	1A	1d	1f
=27	=27	=27	=27
1C	1r	2e\	1e
.	.	2g\	.
1D	1F	2f\	2d/
.	.	2.d\	1a
2r	1E	.	.
.	.	4B\	.
2E\	.	2c\	2g/
=28	=28	=28	=28
2F\	2D/	2.d\	2f/
1C	1G	.	2.e/
.	.	4B\	.
.	.	2c\	.
.	.	.	4d/
2D\	2F/	2A/	1d
1AA	1E	1e	.
.	.	.	2c#i/
=29	=29	=29	=29
2r	1D	1f	1d
2D\	.	.	.
2E\	1r	0g	1r
2.C/	.	.	.
.	1r	.	1e
4BB/	.	.	.
2C/	.	.	.
=30	=30	=30	=30
1D	1r	1f	1f
2C/	1r	2e\	0g
1G	.	4d\	.
.	.	4c\	.
.	1E	2B\	.
2E\	.	[2c\	.
=31	=31	=31	=31
1D	1F	2c\]	1f
.	.	2B\	.
1C	1G	1c	1e
1D	[1F	1A	1r
=32	=32	=32	=32
*M3/2	*	*M3/2	*M3/2
*met(3)	*	*met(3)	*met(3)
!!primary-mensuration: met(C3)
*	*rscale:2/3	*	*
!!LO:TX:Z=8:t=[Note values should be checked against ModE X.1.11, 78v-79r.]
1D	1.F]	1d	1a
2D\	.	2d\	2f/
=33-	=33-	=33-	=33-
!LO:N:vis=0	!	!LO:N:vis=0	!
[y1.C	1.E	[y1.e	1g
!	!	!	!LO:N:vis=1
.	.	.	[y2e/
=34-	=34-	=34-	=34-
2C/]yy	1.A	2e\]yy	2e/]yy
1D	.	1d	1f
=35	=35	=35	=35
1E	1.G	1B	1g
2C/	.	2c\	2e/
=36-	=36-	=36-	=36-
!	!LO:N:vis=1	!	!
1D	[1.F	2A/	2d/
.	.	1d	2.f/
[2AA/	.	.	.
.	.	.	4e/
=37-	=37-	=37-	=37-
2AA/]	1.F]	2c\	2e/
1D	.	2.A/	2.d/
.	.	4G/	4c/
=38	=38	=38	=38
1.Gl	1.El	1.Bl	1.el
*	*rscale:1	*	*
==	==	==	==
*-	*-	*-	*-
!!!RDF**kern: l=long note in original notation
!!!RDF**kern: i=editorial accidental
!!!ENC:	Chris Gage 08-15-2014
!!!END:	2014/10/05/
!!!EED:	Jesse Rodin
!!!EEV:	2014/10/23/
!!!ONB:	Translated from MusicXML and edited on 2014/10/23/ by Craig Sapp
!!muse2ps: C^@{COM}^i2I150v85,85,85,150Q16
